packages/vapor/resources/icons/svg/clouds.svg

<svg height="94" viewBox="0 0 117 94" width="117" xmlns="http://www.w3.org/2000/svg"><path d="m103.500001 20.4999999h-40.5000009s-7.5000001.5-7.5000001-4.9999999c0-9.55194099 10.4462891-10.17523203 14.0397949-2.8861085.9823609 3.0680542 2.9970818 4.6704356 5.6432686 3.6890675-2.2556114 0-4.3212213-1.0531645-4.9201116-3.9131562-.527512-2.87848949-1.9991161-12.31630963 8.2370487-11.8898028 9.0236232.37598427 9.716678 6.10449222 9.4999994 12.3183952-.0405956 1.1642.1976318 2.5181522 3.1420898 3.4845638-2.4638671-1.3693857-2.4790039-2.6966858-2.4790039-3.4845638 0-.7878781.9177746-2.3183952 3.3369141-2.3183952 3.5 0 4.5 3.5 4.5 3.5s.5 6.1441446 7 6.1441446"/><path d="m58.4695436 50.6030434c.0000266 7.0171856-8.9320318 6.4751949-8.9320318 6.4751949h-49.5375118s11.078131-1.2465576 12.7317832-4.0502692c1.0205729-1.7303469-.0494792-3.7995064-.0494792-3.7995064s-2.85156259-5.208296 2.4690107-7.7174037c3.9348695-1.8556292 6.4043718-.0832476 7.3136871 2.8593461.9093154 2.9425937-.8936307 3.8313132-3.2117517 7.2767812 3.211752-2.4187241 5.0158291-4.7668009 4.5285092-7.2767811-.48732-2.5099802-3.8837769-10.3888892 4.7508049-11.3052387 10.4802084-1.1122175 8.2283856 12.3807452 8.2283856 12.3807452s.5687511-8.8629372 7.6502605-8.2790154c6.5191801.5375537 6.5681865 6.3980079 5.4254596 8.6913-.7228508 1.5177335-4.3369382 3.7179388-7.4972458 4.7448463-2.8179515.9156627-10.42629 1.6848789-10.42629 1.6848789 15.7903234-.0000003 18.7750525-6.0592838 18.7750525-6.0592838s7.7813352-1.3787938 7.781357 4.3744057z"/><path d="m75.6159564 93.6020606s-7.1553701-.0968329-5.7348929-6.4077843c1.4200862-6.3092143 7.9882467-3.4591304 9.275851-3.0125926 1.2876043.4465379 2.5174684 3.6593437 8.4137869 4.5712089-4.4657479-1.5744944-6.8939065-4.1682872-7.1261826-4.9848423-.8766193-3.0817118-2.4472074-10.62024 6.5401211-11.0791758 9.3700689-.4784804 8.6290731 7.3579133 8.078951 10.1279769-.1173397.5908483-.9790555 3.1395305 3.7185267 5.4356158-3.2079449-2.2960853-2.8724499-4.7228651-2.7965031-5.4356155.2947197-2.527667 3.1525708-5.9856275 7.7643505-4.3387384 6.248635 2.2314176 3.79678 7.309472 3.796782 8.7161634-.000002 1.8432839-1.109773 6.4077848 9.953253 6.4077847 11.063025-.0000002-41.8840436-.0000008-41.8840436-.0000008z"/></svg>

<svg width="117px" height="94px" viewBox="0 0 117 94" version="1.1" xmlns="http://www.w3.org/2000/svg" xmlns:xlink="http://www.w3.org/1999/xlink" xmlns:sketch="http://www.bohemiancoding.com/sketch/ns">
    <path d="M103.500001,20.4999999 L63.0000001,20.4999999 C63.0000001,20.4999999 55.5,20.9999999 55.5,15.5 C55.5,5.94805901 65.9462891,5.32476797 69.5397949,12.6138915 C70.5221558,15.6819457 72.5368767,17.2843271 75.1830635,16.302959 C72.9274521,16.302959 70.8618422,15.2497945 70.2629519,12.3898028 C69.7354399,9.51131331 68.2638358,0.0734931681 78.5000006,0.5 C87.5236238,0.875984272 88.2166786,6.60449222 88,12.8183952 C87.9594044,13.9825952 88.1976318,15.3365474 91.1420898,16.302959 C88.6782227,14.9335733 88.6630859,13.6062732 88.6630859,12.8183952 C88.6630859,12.0305171 89.5808605,10.5 92,10.5 C95.5,10.5 96.5,14 96.5,14 C96.5,14 97,20.1441446 103.5,20.1441446"></path>
    <path d="M58.4695436,50.6030434 C58.4695702,57.620229 49.5375118,57.0782383 49.5375118,57.0782383 L0,57.0782383 C0,57.0782383 11.078131,55.8316807 12.7317832,53.0279691 C13.7523561,51.2976222 12.682304,49.2284627 12.682304,49.2284627 C12.682304,49.2284627 9.83074141,44.0201667 15.1513147,41.511059 C19.0861842,39.6554298 21.5556865,41.4278114 22.4650018,44.3704051 C23.3743172,47.3129988 21.5713711,48.2017183 19.2532501,51.6471863 C22.4650021,49.2284622 24.2690792,46.8803854 23.7817593,44.3704052 C23.2944393,41.860425 19.8979824,33.981516 28.5325642,33.0651665 C39.0127726,31.952949 36.7609498,45.4459117 36.7609498,45.4459117 C36.7609498,45.4459117 37.3297009,36.5829745 44.4112103,37.1668963 C50.9303904,37.70445 50.9793968,43.5649042 49.8366699,45.8581963 C49.1138191,47.3759298 45.4997317,49.5761351 42.3394241,50.6030426 C39.5214726,51.5187053 31.9131341,52.2879215 31.9131341,52.2879215 C47.7034575,52.2879212 50.6881866,46.2286377 50.6881866,46.2286377 C50.6881866,46.2286377 58.4695218,44.8498439 58.4695436,50.6030434 Z"></path>
    <path d="M75.6159564,93.6020606 C75.6159564,93.6020606 68.4605863,93.5052277 69.8810635,87.1942763 C71.3011497,80.885062 77.8693102,83.7351459 79.1569145,84.1816837 C80.4445188,84.6282216 81.6743829,87.8410274 87.5707014,88.7528926 C83.1049535,87.1783982 80.6767949,84.5846054 80.4445188,83.7680503 C79.5678995,80.6863385 77.9973114,73.1478103 86.9846399,72.6888745 C96.3547088,72.2103941 95.613713,80.0467878 95.0635909,82.8168514 C94.9462512,83.4076997 94.0845354,85.9563819 98.7821176,88.2524672 C95.5741727,85.9563819 95.9096677,83.5296021 95.9856145,82.8168517 C96.2803342,80.2891847 99.1381853,76.8312242 103.749965,78.4781133 C109.9986,80.7095309 107.546745,85.7875853 107.546747,87.1942767 C107.546745,89.0375606 106.436974,93.6020615 117.5,93.6020614 C128.563025,93.6020612 75.6159564,93.6020606 75.6159564,93.6020606 Z"></path>
</svg>
